!!!!SEGMENT: pl-kk--kk-i-132--001_anonim--beatus-vir-qui-timet-dominum.krn
!!!cenid: 16xx:738
!!!COM: Anonim
!!!COM-rismID: pe30004985
!!!CDT:
!!!CNT:
!!!OTL: Beatus vir qui timet Dominum
!!!PDT:
!!!AGN: Sacred
!!!SMS-siglum: PL-Kk
!!!SMS-shelfmark: Kk.I.132
!!!SMS-shelfwork: 001 W
!!!SMS-variant:
!!!SMS-altvar:
!!!NIFC-rismSourceID: 1001144400
!!!NIFC-rismChildID: 1001144420
!!!NIFC-islandoraID: pl-kk:3556
!!!URL-pdf-islandora: https://repozytorium.nifc.pl/islandora/object/pl-kk%3A3556/datastream/PDF/view
!!!URL-scan: https://polish.musicsources.pl/pl/lokalizacje/galeria/rekopisy/5762 @EN{Scan on Polish Music Sources Website} @PL{Skany w portalu Dziedzictwo Muzyki Polskiej w otwartym dostępie}
!!!IIIF:
!!!ONB-nifc: UWAGA: skan 001
!!!AIN: 1 empty
!!!key:
**kern	**text
*Iempty	*
*I"[Basso]	*
*I'B	*
*clefF4	*
*k[b-]	*
*F:	*
*M2/2	*
*met(c|)	*
=1	=1
*2\right	*
!LO:TX:t=P:problem=2\right&colon; global	!
2F\	Be-
4A\	.
4B-\	.
=2	=2
2c\	-a-
2C/	-tus
=3	=3
2F\	vir,
2F\	qui
=4	=4
2.F\	ti-
4F\	-met
=5	=5
2.C/	Do-
4C/	-mi-
!!LO:LB:g=original
=6	=6
2F\	-num
4A\	in
4c\	man-
=7	=7
2G\	-da-
2E\	-tis
=8	=8
2G\	e-
2C/	-jus
=9	=9
4G\	cu-
4F\	.
4E\	-pit
4F\	.
=10	=10
1G\	ni-
=11	=11
2C/	mis
2r	.
!!LO:LB:g=original
=12	=12
2F\	Po-
4F\	-tens
4A\	in
=13	=13
4B-\	ter-
4F\	.
2BB-/	-ra
=14	=14
4BB-/	e-
4BB-/	-rit
4BB-/	se-
4BBn/	-men
=15	=15
2C/	e-
2C/	-jus
=16	=16
4C/	ge-
4C/	-ne-
4C/	-ra-
4C/	-ti-
!!LO:LB:g=original
=17	=17
4F\	-o
4E\	rec-
4F\	-to-
4F\	-rum
=18	=18
2BB-/	be-
4AA/	-ne-
8AA/L	-di-
8BB-/J	.
=19	=19
1C/	-ce-
=20	=20
2F\	-tur
2r	.
=21	=21
4D\	Glo-
4E\	.
4F\	-ri-
4D\	-a
!!LO:LB:g=original
=22	=22
4A\	et
!LO:SIC:v:s=4Bn:t=?	!
4B-\	di-
4c#X\	-ci-
4A\	-ti-
=23	=23
4d\	-a
4A\	in
4G\	do-
4F\	-mo
=24	=24
2A\	e-
2AA/	-jus
=25	=25
2r	.
4A\	et
!LO:SIC:v:s=4Bn:t=?	!
4B-\	jus-
=26	=26
2c#X\	-ti-
!LO:SIC:v:s=4Bn:t=?	!
4B-\	-ti-
4A\	-a
!!LO:LB:g=original
=27	=27
4d\	e-
4A\	.
4F\	.
4D\	-jus
=28	=28
2r	.
4Cn/	et
4C/	jus-
=29	=29
2C/	-ti-
4C/	-ti-
4C/	-a
=30	=30
4F\	e-
4c\	.
4A\	.
4F\	-jus
!!LO:LB:g=original
=31	=31
4BB-/	ma-
4C/	.
4D/	.
4E/	.
=32	=32
2F\	-net
2C/	in
=33	=33
2F\	Sae-
4E\	-cu-
4F\	-lum
=34	=34
2.C/	Sae-
4C/	-cu-
=35	=35
1F\	-li
==	==
*-	*-
!!!EED: Leszek Kubiak
!!!EEV: 2021-02-16
!!!ENC: Krzysztof Stępień
!!!END: 2021-02-11
!!!YEC: Copyright 2022 Narodowy Instytut Fryderyka Chopina (https://polishscores.org)
!!!YEM: License CC-BY-4.0 (https://creativecommons.org/licenses/by/4.0)
